assets/Japanese vacancy button/Flat/japanese_vacancy_button_flat.svg

<svg width="32" height="32" viewBox="0 0 32 32" fill="none" xmlns="http://www.w3.org/2000/svg">
<path d="M2 6C2 3.79086 3.79086 2 6 2H26C28.2091 2 30 3.79086 30 6V26C30 28.2091 28.2091 30 26 30H6C3.79086 30 2 28.2091 2 26V6Z" fill="#00A6ED"/>
<path d="M15 6C15 5.44772 15.4477 5 16 5C16.5523 5 17 5.44772 17 6V6.875C17 6.94404 17.056 7 17.125 7H26C26.5523 7 27 7.44772 27 8V11C27 11.5523 26.5523 12 26 12C25.4477 12 25 11.5523 25 11V9.125C25 9.05596 24.944 9 24.875 9H19.125C19.056 9 19 9.05596 19 9.125V13.875C19 13.944 19.056 14 19.125 14H23.534C23.5672 14 23.599 13.9868 23.6224 13.9634L24.2929 13.2929C24.6834 12.9024 25.3166 12.9024 25.7071 13.2929C26.0976 13.6834 26.0976 14.3166 25.7071 14.7071L25 15.4142C24.6249 15.7893 24.1162 16 23.5858 16H19C17.8954 16 17 15.1046 17 14V9.125C17 9.05596 16.944 9 16.875 9H15.125C15.056 9 15.0002 9.05442 14.9984 9.12343C14.9387 11.4065 13.2283 15.7506 7.29769 17.4549C7.20366 17.4842 7.10367 17.5 7 17.5C6.44772 17.5 6 17.0523 6 16.5C6 16.0356 6.31662 15.6451 6.7458 15.5326C11.7264 14.101 12.9334 10.6185 12.9973 9.12439C13.0002 9.05542 12.944 9 12.875 9H8.125C8.05596 9 8 9.05596 8 9.125V11C8 11.5523 7.55228 12 7 12C6.44772 12 6 11.5523 6 11V8C6 7.44772 6.44772 7 7 7H14.875C14.944 7 15 6.94404 15 6.875V6Z" fill="white"/>
<path d="M9 18C8.44772 18 8 18.4477 8 19C8 19.5523 8.44772 20 9 20H14.875C14.944 20 15 20.056 15 20.125V22.875C15 22.944 14.944 23 14.875 23H7C6.44772 23 6 23.4477 6 24C6 24.5523 6.44772 25 7 25H25C25.5523 25 26 24.5523 26 24C26 23.4477 25.5523 23 25 23H17.125C17.056 23 17 22.944 17 22.875V20.125C17 20.056 17.056 20 17.125 20H23C23.5523 20 24 19.5523 24 19C24 18.4477 23.5523 18 23 18H9Z" fill="white"/>
</svg>

<svg xmlns="http://www.w3.org/2000/svg" width="32" height="32" fill="none"><path fill="#00A6ED" d="M2 6a4 4 0 0 1 4-4h20a4 4 0 0 1 4 4v20a4 4 0 0 1-4 4H6a4 4 0 0 1-4-4V6Z"/><path fill="#fff" d="M15 6a1 1 0 1 1 2 0v.875c0 .069.056.125.125.125H26a1 1 0 0 1 1 1v3a1 1 0 1 1-2 0V9.125A.125.125 0 0 0 24.875 9h-5.75a.125.125 0 0 0-.125.125v4.75c0 .069.056.125.125.125h4.409a.125.125 0 0 0 .088-.037l.67-.67a1 1 0 0 1 1.415 1.414l-.707.707a2 2 0 0 1-1.414.586H19a2 2 0 0 1-2-2V9.125A.125.125 0 0 0 16.875 9h-1.75a.126.126 0 0 0-.127.123c-.06 2.284-1.77 6.628-7.7 8.332a1 1 0 1 1-.552-1.922c4.98-1.432 6.187-4.915 6.251-6.409A.12.12 0 0 0 12.875 9h-4.75A.125.125 0 0 0 8 9.125V11a1 1 0 1 1-2 0V8a1 1 0 0 1 1-1h7.875A.125.125 0 0 0 15 6.875V6ZM9 18a1 1 0 1 0 0 2h5.875c.069 0 .125.056.125.125v2.75a.125.125 0 0 1-.125.125H7a1 1 0 1 0 0 2h18a1 1 0 1 0 0-2h-7.875a.125.125 0 0 1-.125-.125v-2.75c0-.069.056-.125.125-.125H23a1 1 0 1 0 0-2H9Z"/></svg>
